**kern	**kern	**dynam
*part1	*part1	*part1
*staff2	*staff1	*
*I"Piano	*	*
*clefF4	*clefG2	*
*k[b-e-a-]	*k[b-e-a-]	*
=1	=1	=1
8B-'	8b-'L 8dd 8gg 8bb-	.
8r	8b-' 8dd 8gg 8bb-	.
8r	8b-'J 8dd 8gg 8bb-	.
=	=	=
8GG'L	8cc'L 8ee- 8aa- 8ccc	.
8E-'	8cc' 8ee- 8aa- 8ccc	.
8A-'J	8cc'J 8ee- 8aa- 8ccc	.
=	=	=
8c'	8cc'L 8ee- 8aa- 8ccc	.
8r	8cc' 8ee- 8aa- 8ccc	.
8r	8cc'J 8ee- 8aa- 8ccc	.
=	=	=
4GG 4G	8b-'L 8dd 8gg 8bb-	.
.	8b-' 8dd 8gg	.
8r	8b-'J 8dd 8gg	.
=	=	=
4AA- 4A-	8g'L 8cc 8ee- 8gg	.
!	!LO:TX:b:i:t=cresc.	!
.	8g' 8cc 8ee- 8gg	.
8r	8g'J 8cc 8ee- 8gg	.
=	=	=
4AAn 4An	8g-X'L 8cc 8ee- 8gg-X	.
.	8g-' 8cc 8ee- 8gg-	.
8r	8g-'J 8cc 8ee- 8gg-	.
=	=	=
4BB- 4B-	8f'L 8a-X 8dd 8ff	.
.	8f' 8a- 8dd 8ff	.
8r	8b-'J 8dd 8aa- 8bb-	pp
=	=	=
8EE-'L	8b-'L 8ee- 8ggn 8bb-	.
8BB-'	8b-' 8ee- 8gg 8bb-	.
8E-'J	8b-'J 8ee- 8gg 8bb-	.
=	=	=
*-	*-	*-
!!!system-decoration: {(s1,s2)}
